X:1
T:Katla, 11.11.11.11.10.11
T:Katla, 11.11.11.11.10.11
T:David Stiles Hakes, 1878
T:Public Domain Courtesy of the Cyber Hymnal™
C:David Stiles Hakes, 1878
Z:Public Domain
Z:Courtesy of the Cyber Hymnal™
%%score ( 1 2 ) ( 3 4 )
L:1/8
Q:1/4=96
M:2/4
K:Ab
V:1 treble 
V:2 treble 
V:3 bass 
V:4 bass 
V:1
 [CE] | [Ec]2 [DB][CA] | [EA] [EG]2 E | [Ed]2 [Ec][DB] | [CA]3 E | [Ee]2 [Ed][Ec] | %6
 [Ec] [EB]2 [Ec] | d2 [EB][DG] | [CA]3 [EA] | [FA]2 [Ac][FA] | [FA] [=EG]2 [EG] | F2 [FA][DF] | %12
 [CE]3 E | [Ee]2 [Ed][Ec] | [Ec] [EB]2 [Ec] | d2 [EG][DB] | [CA]3 [CE] | [Ec]2 [EA][DF] | [CE]3 E | %19
 [Ed]2 [Ec][DB] | [CA]3 E | [Ee]2 [Ed][Ec] | [Ec] [EB]2 [Ec] | d2 [EG][DB] | [CA]3 |] %25
V:2
 x | x4 | x3 E | x4 | x3 E | x4 | x4 | (DF) x2 | x4 | x4 | x4 | F2 x2 | x3 E | x4 | x4 | (DF) x2 | %16
 x4 | x4 | x3 E | x4 | x3 E | x4 | x4 | (DF) x2 | x3 |] %25
V:3
 [A,,A,] | [A,,A,]2 [A,,A,][A,,A,] | [E,C] [E,B,]2 [E,G,] | [E,B,]2 [E,A,][E,G,] | [A,,A,]3 [A,C] | %5
 [A,C]2 [A,B,]A, | [E,A,] [E,G,]2 [C,A,] | [B,,B,]2 [E,G,][E,B,] | [A,,A,]3 [A,,C] | %9
 [F,C]2 [F,C][F,C] | [C,C] [C,C]2 [C,B,] | [D,A,]2 [D,A,][D,A,] | [A,,A,]3 [A,C] | %13
 [A,C]2 [A,B,]A, | [E,A,] [E,G,]2 [C,A,] | [B,,B,]2 [E,B,][E,G,] | [A,,A,]3 [A,,A,] | %17
 [A,,A,]2 [C,A,][D,A,] | [A,,A,]3 [C,A,] | [E,B,]2 [E,A,][E,G,] | [A,,A,]3 [A,C] | %21
 [A,C]2 [A,B,]A, | [E,A,] [E,G,]2 [C,A,] | [B,,B,]2 [E,B,][E,G,] | [A,,A,]3 |] %25
V:4
 x | x4 | x4 | x4 | x4 | x3 A, | x4 | x4 | x4 | x4 | x4 | x4 | x4 | x3 A, | x4 | x4 | x4 | x4 | %18
 x4 | x4 | x4 | x3 A, | x4 | x4 | x3 |] %25

